;FLAVOR:Marlin
;TIME:9348
;Filament used: 6.65819m
;Layer height: 0.2
;MINX:22.598
;MINY:22.714
;MINZ:0.2
;MAXX:277.397
;MAXY:277.408
;MAXZ:30
;Generated with Cura_SteamEngine main
M140 S50
M105
M190 S50
M104 S200
M105
M109 S200
M82 ;absolute extrusion mode
M201 X500.00 Y500.00 Z100.00 E5000.00 ;Setup machine max acceleration
M203 X500.00 Y500.00 Z10.00 E50.00 ;Setup machine max feedrate
M204 P500.00 R1000.00 T500.00 ;Setup Print/Retract/Travel acceleration
M205 X8.00 Y8.00 Z0.40 E5.00 ;Setup Jerk
M220 S100 ;Reset Feedrate
M221 S100 ;Reset Flowrate

G28 ;Home

G92 E0 ;Reset Extruder
G1 Z2.0 F3000 ;Move Z Axis up
G1 X10.1 Y20 Z0.28 F5000.0 ;Move to start position
G1 X10.1 Y200.0 Z0.28 F1500.0 E15 ;Draw the first line
G1 X10.4 Y200.0 Z0.28 F5000.0 ;Move to side a little
G1 X10.4 Y20 Z0.28 F1500.0 E30 ;Draw the second line
G92 E0 ;Reset Extruder
G1 Z2.0 F3000 ;Move Z Axis up

G92 E0
G92 E0
G1 F2700 E-5
;LAYER_COUNT:150
;LAYER:0
M107
G0 F6000 X28.602 Y29.051 Z0.2
G0 X22.984 Y40.202
;TYPE:SKIRT
G1 F2700 E0
G1 F1200 X23.063 Y39.764 E0.0148
G1 X23.209 Y39.044 E0.03924
G1 X23.408 Y38.207 E0.06785
G1 X23.592 Y37.562 E0.09016
G1 X23.784 Y36.973 E0.11077
G1 X23.961 Y36.468 E0.12856
G1 X24.214 Y35.813 E0.15192
G1 X24.512 Y35.11 E0.17731
G1 X24.778 Y34.531 E0.19851
G1 X24.986 Y34.11 E0.21412
G1 X25.242 Y33.622 E0.23245
G1 X25.54 Y33.088 E0.25279
G1 X25.834 Y32.588 E0.27208
G1 X26.157 Y32.083 E0.29202
G1 X26.542 Y31.523 E0.31463
G1 X26.816 Y31.143 E0.33021
G1 X27.205 Y30.635 E0.35149
G1 X27.576 Y30.179 E0.37104
G1 X28.016 Y29.671 E0.39339
G1 X28.602 Y29.051 E0.42177
G1 X29.02 Y28.636 E0.44136
G1 X29.676 Y28.024 E0.4712
G1 X30.2 Y27.576 E0.49413
G1 X30.91 Y27.006 E0.52441
G1 X31.532 Y26.538 E0.5503
G1 X32.097 Y26.154 E0.57302
G1 X32.654 Y25.8 E0.59497
G1 X33.364 Y25.385 E0.62233
G1 X34.147 Y24.966 E0.65186
G1 X34.892 Y24.6 E0.67947
G1 X35.453 Y24.356 E0.69982
G1 X36.288 Y24.027 E0.72967
G1 X36.668 Y23.89 E0.7431
G1 X37.169 Y23.723 E0.76067
G1 X37.755 Y23.543 E0.78106
G1 X38.568 Y23.32 E0.8091
G1 X39.054 Y23.205 E0.82571
G1 X39.583 Y23.092 E0.8437
G1 X40.692 Y22.913 E0.88106
G1 X41.593 Y22.815 E0.91121
G1 X42.067 Y22.774 E0.92703
G1 X42.666 Y22.735 E0.94699
G1 X43.584 Y22.714 E0.97754
G1 X44.179 Y22.725 E0.99733
G1 X44.89 Y22.761 E1.02101
G1 X45.598 Y22.82 E1.04464
G1 X46.448 Y22.914 E1.07308
G1 X47.072 Y23.007 E1.09406
G1 X47.679 Y23.115 E1.11457
G1 X48.225 Y23.227 E1.13311
G1 X48.589 Y23.311 E1.14553
G1 X49.336 Y23.511 E1.17125
G1 X49.911 Y23.687 E1.19125
G1 X50.407 Y23.852 E1.20864
G1 X51.006 Y24.067 E1.22981
G1 X51.656 Y24.32 E1.25301
G1 X52.495 Y24.691 E1.28352
G1 X53.117 Y24.999 E1.3066
G1 X53.48 Y25.193 E1.32029
G1 X56.383 Y26.808 E1.43078
G1 X58.606 Y27.96 E1.51406
G1 X60.85 Y29.043 E1.59693
G1 X63.191 Y30.092 E1.68225
G1 X65.494 Y31.046 E1.76516
G1 X67.852 Y31.947 E1.84912
G1 X70.221 Y32.776 E1.9326
G1 X72.636 Y33.545 E2.0169
G1 X75.026 Y34.232 E2.09961
G1 X77.469 Y34.861 E2.18351
G1 X79.97 Y35.428 E2.26881
G1 X82.424 Y35.913 E2.352
G1 X84.548 Y36.275 E2.42367
G1 X86.41 Y36.57 E2.48637
G1 X87.39 Y36.744 E2.51948
G1 X88.58 Y36.99 E2.55989
G1 X100.677 Y39.694 E2.97217
G1 X101.75 Y39.955 E3.0089
G1 X102.731 Y40.222 E3.04271
G1 X115.036 Y43.796 E3.46889
G1 X115.83 Y44.045 E3.49657
G1 X116.964 Y44.432 E3.53642
G1 X128.651 Y48.64 E3.94956
G1 X129.668 Y49.027 E3.98575
G1 X130.638 Y49.428 E4.02066
G1 X142.347 Y54.495 E4.44501
G1 X143.116 Y54.847 E4.47314
G1 X144.252 Y55.403 E4.5152
G1 X155.274 Y61.019 E4.92664
G1 X156.223 Y61.524 E4.9624
G1 X157.108 Y62.026 E4.99624
G1 X167.997 Y68.464 E5.41697
G1 X168.862 Y68.997 E5.45077
G1 X169.868 Y69.657 E5.49078
G1 X180.166 Y76.656 E5.90491
G1 X181.012 Y77.254 E5.93937
G1 X181.965 Y77.968 E5.97898
G1 X191.81 Y85.604 E6.39337
G1 X192.361 Y86.043 E6.41681
G1 X193.405 Y86.926 E6.46228
G1 X202.981 Y95.368 E6.88688
G1 X203.639 Y95.972 E6.91659
G1 X204.357 Y96.665 E6.94978
G1 X213.433 Y105.74 E7.37666
G1 X214.013 Y106.345 E7.40454
G1 X214.714 Y107.112 E7.4391
G1 X223.134 Y116.663 E7.86258
G1 X223.737 Y117.375 E7.89361
G1 X224.506 Y118.333 E7.93447
G1 X232.132 Y128.165 E8.34832
G1 X232.734 Y128.971 E8.38178
G1 X233.44 Y129.975 E8.42261
G1 X240.505 Y140.373 E8.84072
G1 X240.991 Y141.119 E8.87034
G1 X241.541 Y142.014 E8.90528
G1 X248.032 Y152.99 E9.3294
G1 X248.481 Y153.786 E9.35979
G1 X249.028 Y154.817 E9.39861
G1 X254.673 Y165.896 E9.81218
G1 X255.151 Y166.876 E9.84844
G1 X255.566 Y167.793 E9.88192
G1 X260.635 Y179.508 E10.30647
G1 X260.979 Y180.348 E10.33666
G1 X261.393 Y181.441 E10.37554
G1 X265.607 Y193.145 E10.78928
G1 X265.954 Y194.165 E10.82511
G1 X266.258 Y195.15 E10.8594
G1 X269.81 Y207.376 E11.28285
G1 X270.053 Y208.278 E11.31392
G1 X270.287 Y209.247 E11.34708
G1 X273.072 Y221.704 E11.77163
G1 X273.256 Y222.612 E11.80244
G1 X273.457 Y223.759 E11.84117
G1 X275.409 Y236.086 E12.25628
G1 X275.549 Y237.091 E12.29003
G1 X275.684 Y238.315 E12.33098
G1 X276.857 Y250.714 E12.74522
G1 X276.932 Y251.704 E12.77824
G1 X276.991 Y252.94 E12.8194
G1 X277.381 Y265.365 E13.23286
G1 X277.397 Y266.19 E13.2603
G1 X277.375 Y267.128 E13.29151
G1 X277.273 Y268.06 E13.32269
G1 X277.092 Y268.98 E13.35388
G1 X276.833 Y269.882 E13.38509
G1 X276.498 Y270.758 E13.41628
G1 X276.09 Y271.602 E13.44746
G1 X275.611 Y272.409 E13.47868
G1 X275.066 Y273.172 E13.50986
G1 X274.457 Y273.885 E13.54105
G1 X273.79 Y274.545 E13.57226
G1 X273.069 Y275.145 E13.60346
G1 X272.3 Y275.681 E13.63464
G1 X271.488 Y276.15 E13.66582
G1 X270.639 Y276.548 E13.69701
G1 X269.759 Y276.872 E13.7282
G1 X268.854 Y277.12 E13.75941
G1 X267.932 Y277.291 E13.7906
G1 X266.622 Y277.396 E13.83431
G1 X265.905 Y277.408 E13.85816
G1 X263.971 Y277.407 E13.92249
G1 X263.284 Y277.398 E13.94534
G1 X262.347 Y277.346 E13.97655
G1 X261.419 Y277.214 E14.00773
G1 X260.505 Y277.004 E14.03892
G1 X259.612 Y276.716 E14.07013
G1 X258.747 Y276.353 E14.10133
G1 X257.916 Y275.919 E14.13251
G1 X257.125 Y275.414 E14.16372
G1 X256.38 Y274.845 E14.1949
G1 X255.687 Y274.214 E14.22607
G1 X255.049 Y273.526 E14.25728
G1 X254.472 Y272.786 E14.28849
G1 X253.961 Y272 E14.31967
G1 X253.518 Y271.173 E14.35088
G1 X253.147 Y270.312 E14.38206
G1 X252.852 Y269.422 E14.41324
G1 X252.632 Y268.51 E14.44445
G1 X252.492 Y267.583 E14.47563
G1 X252.443 Y266.969 E14.49612
G1 X252.381 Y265.74 E14.53704
G1 X252.082 Y256.183 E14.85507
G1 X251.964 Y253.603 E14.94097
G1 X251.715 Y250.368 E15.04888
G1 X251.023 Y243.061 E15.293
G1 X250.749 Y240.547 E15.37711
G1 X250.304 Y237.379 E15.48352
G1 X249.154 Y230.112 E15.72822
G1 X248.716 Y227.583 E15.81359
G1 X248.071 Y224.442 E15.92024
G1 X246.487 Y217.352 E16.16187
G1 X245.874 Y214.784 E16.24968
G1 X245.028 Y211.671 E16.35698
G1 X242.991 Y204.659 E16.59984
G1 X242.237 Y202.195 E16.68554
G1 X241.202 Y199.156 E16.79232
G1 X238.716 Y192.254 E17.03632
G1 X237.792 Y189.799 E17.12356
G1 X236.587 Y186.878 E17.22866
G1 X233.701 Y180.207 E17.47041
G1 X232.614 Y177.787 E17.55865
G1 X231.217 Y174.924 E17.6646
G1 X227.843 Y168.303 E17.91176
G1 X226.683 Y166.105 E17.99442
G1 X225.107 Y163.334 E18.10045
G1 X221.345 Y156.973 E18.34625
G1 X220.006 Y154.778 E18.43177
G1 X218.297 Y152.168 E18.53553
G1 X214.123 Y146.024 E18.78258
G1 X212.667 Y143.946 E18.86697
G1 X210.779 Y141.424 E18.97175
G1 X206.236 Y135.567 E19.21829
G1 X204.624 Y133.549 E19.30419
G1 X202.569 Y131.135 E19.40964
G1 X197.74 Y125.657 E19.65252
G1 X195.981 Y123.717 E19.73962
G1 X193.757 Y121.415 E19.84608
G1 X188.544 Y116.202 E20.09128
G1 X186.741 Y114.45 E20.1749
G1 X184.313 Y112.234 E20.28423
G1 X178.866 Y107.432 E20.52575
G1 X176.889 Y105.738 E20.61234
G1 X174.422 Y103.756 E20.7176
G1 X168.578 Y99.221 E20.96363
G1 X166.542 Y97.688 E21.0484
G1 X163.934 Y95.849 E21.15454
G1 X157.812 Y91.689 E21.40072
G1 X155.714 Y90.307 E21.48427
G1 X153.026 Y88.654 E21.58923
G1 X146.61 Y84.861 E21.83713
G1 X144.411 Y83.601 E21.92142
G1 X141.658 Y82.137 E22.02513
G1 X135.041 Y78.765 E22.27214
G1 X132.752 Y77.639 E22.35699
G1 X129.867 Y76.331 E22.46234
G1 X123.052 Y73.384 E22.7093
G1 X120.735 Y72.42 E22.79276
G1 X117.724 Y71.276 E22.89989
G1 X110.821 Y68.79 E23.14392
G1 X108.4 Y67.956 E23.22909
G1 X105.316 Y67.002 E23.33646
G1 X98.317 Y64.969 E23.57887
G1 X95.775 Y64.269 E23.66656
G1 X92.72 Y63.531 E23.7711
G1 X90.947 Y63.136 E23.83151
G1 X88.462 Y62.617 E23.91595
G1 X85.966 Y62.168 E24.0003
G1 X83.504 Y61.799 E24.0831
G1 X80.994 Y61.494 E24.1672
G1 X78.466 Y61.259 E24.25164
G1 X75.988 Y61.099 E24.33423
G1 X73.465 Y61.008 E24.4182
G1 X70.941 Y60.988 E24.50215
G1 X68.418 Y61.04 E24.58608
G1 X65.899 Y61.163 E24.66997
G1 X63.403 Y61.356 E24.75323
G1 X60.909 Y61.619 E24.83664
G1 X58.399 Y61.957 E24.92088
G1 X55.929 Y62.36 E25.00412
G1 X53.438 Y62.84 E25.08849
G1 X51.025 Y63.374 E25.17069
G1 X50.309 Y63.557 E25.19527
G1 X48.19 Y64.067 E25.26776
G1 X47.535 Y64.203 E25.29001
G1 X46.948 Y64.307 E25.30984
G1 X46.251 Y64.408 E25.33326
G1 X45.589 Y64.482 E25.35542
G1 X44.905 Y64.537 E25.37824
G1 X44.313 Y64.566 E25.39796
G1 X43.607 Y64.578 E25.42144
G1 X42.952 Y64.568 E25.44323
G1 X42.273 Y64.536 E25.46584
G1 X41.69 Y64.491 E25.48529
G1 X40.979 Y64.413 E25.50908
G1 X40.266 Y64.311 E25.53303
G1 X39.611 Y64.197 E25.55514
G1 X39.124 Y64.097 E25.57168
G1 X38.515 Y63.954 E25.59249
G1 X37.882 Y63.786 E25.61427
G1 X37.152 Y63.565 E25.63964
G1 X36.472 Y63.333 E25.66353
G1 X35.793 Y63.076 E25.68768
G1 X35.265 Y62.856 E25.70671
G1 X34.657 Y62.581 E25.7289
G1 X34.069 Y62.293 E25.75068
G1 X33.475 Y61.979 E25.77302
G1 X32.975 Y61.695 E25.79215
G1 X32.396 Y61.342 E25.8147
G1 X31.852 Y60.987 E25.83631
G1 X31.31 Y60.61 E25.85827
G1 X30.853 Y60.271 E25.87719
G1 X30.253 Y59.792 E25.90273
G1 X29.662 Y59.286 E25.92861
G1 X29.206 Y58.873 E25.94907
G1 X28.92 Y58.599 E25.96224
G1 X28.444 Y58.114 E25.98484
G1 X27.921 Y57.547 E26.0105
G1 X27.456 Y57.008 E26.03418
G1 X27.049 Y56.505 E26.0557
G1 X26.615 Y55.932 E26.07961
G1 X26.276 Y55.452 E26.09915
G1 X25.873 Y54.839 E26.12355
G1 X25.528 Y54.274 E26.14557
G1 X25.208 Y53.713 E26.16705
G1 X24.923 Y53.178 E26.18721
G1 X24.601 Y52.522 E26.21152
G1 X24.334 Y51.929 E26.23315
G1 X24.102 Y51.374 E26.25315
G1 X23.948 Y50.975 E26.26738
G1 X23.741 Y50.389 E26.28805
G1 X23.535 Y49.75 E26.31038
G1 X23.366 Y49.19 E26.32984
G1 X23.229 Y48.681 E26.34737
G1 X23.087 Y48.096 E26.36739
G1 X22.867 Y47.065 E26.40245
G1 X22.714 Y46.14 E26.43364
G1 X22.649 Y45.38 E26.45901
G1 X22.622 Y44.85 E26.47666
G1 X22.598 Y43.757 E26.51302
G1 X22.622 Y42.82 E26.54419
G1 X22.68 Y42.216 E26.56438
G1 X22.781 Y41.463 E26.58965
G1 X22.984 Y40.202 E26.63213
G1 F2700 E21.63213
G0 F6000 X22.997 Y43.75
G1 F2700 E26.63213
G1 F1200 X23.022 Y42.83 E26.66274
G1 X23.077 Y42.265 E26.68162
G1 X23.176 Y41.526 E26.70642
G1 X23.379 Y40.265 E26.7489
G1 X23.455 Y39.843 E26.76316
G1 X23.601 Y39.123 E26.78759
G1 X23.796 Y38.304 E26.8156
G1 X23.973 Y37.683 E26.83707
G1 X24.162 Y37.105 E26.8573
G1 X24.339 Y36.6 E26.8751
G1 X24.583 Y35.969 E26.8976
G1 X24.881 Y35.266 E26.92299
G1 X25.137 Y34.708 E26.94341
G1 X25.345 Y34.287 E26.95903
G1 X25.592 Y33.817 E26.97669
G1 X25.89 Y33.283 E26.99703
G1 X26.177 Y32.794 E27.01589
G1 X26.488 Y32.307 E27.03511
G1 X26.866 Y31.757 E27.0573
G1 X27.14 Y31.377 E27.07289
G1 X27.516 Y30.887 E27.09343
G1 X27.887 Y30.431 E27.11298
G1 X28.31 Y29.942 E27.13449
G1 X28.884 Y29.335 E27.16227
G1 X29.302 Y28.92 E27.18186
G1 X29.946 Y28.32 E27.21114
G1 X30.45 Y27.888 E27.23322
G1 X31.16 Y27.318 E27.2635
G1 X31.767 Y26.862 E27.28875
G1 X32.311 Y26.492 E27.31063
G1 X32.868 Y26.138 E27.33258
G1 X33.553 Y25.738 E27.35897
G1 X34.336 Y25.319 E27.3885
G1 X35.062 Y24.962 E27.41541
G1 X35.602 Y24.727 E27.435
G1 X36.424 Y24.403 E27.46439
G1 X36.804 Y24.266 E27.47782
G1 X37.287 Y24.105 E27.49476
G1 X37.873 Y23.925 E27.51514
G1 X38.67 Y23.707 E27.54263
G1 X39.138 Y23.596 E27.55862
G1 X39.667 Y23.483 E27.57662
G1 X40.735 Y23.311 E27.6126
G1 X41.636 Y23.213 E27.64274
G1 X42.093 Y23.173 E27.658
G1 X42.692 Y23.134 E27.67796
G1 X43.577 Y23.114 E27.70741
G1 X44.172 Y23.125 E27.7272
G1 X44.856 Y23.16 E27.74998
G1 X45.564 Y23.219 E27.77361
G1 X46.401 Y23.312 E27.80162
G1 X47.002 Y23.401 E27.82183
G1 X47.609 Y23.509 E27.84233
G1 X48.136 Y23.616 E27.86022
G1 X48.5 Y23.7 E27.87264
G1 X49.218 Y23.893 E27.89737
G1 X49.793 Y24.069 E27.91737
G1 X50.272 Y24.228 E27.93416
G1 X50.871 Y24.443 E27.95532
G1 X51.506 Y24.691 E27.978
G1 X52.329 Y25.055 E28.00793
G1 X52.928 Y25.351 E28.03015
G1 X53.291 Y25.545 E28.04384
G1 X56.184 Y27.156 E28.15398
G1 X58.413 Y28.31 E28.23746
G1 X60.705 Y29.416 E28.3221
G1 X63.011 Y30.45 E28.40616
G1 X65.378 Y31.43 E28.49137
G1 X67.725 Y32.327 E28.57493
G1 X70.094 Y33.156 E28.65841
G1 X72.487 Y33.918 E28.74194
G1 X74.954 Y34.627 E28.82732
G1 X77.378 Y35.251 E28.91057
G1 X79.848 Y35.811 E28.9948
G1 X82.357 Y36.307 E29.07987
G1 X84.497 Y36.672 E29.15207
G1 X86.347 Y36.965 E29.21437
G1 X87.31 Y37.136 E29.2469
G1 X88.492 Y37.38 E29.28704
G1 X100.589 Y40.084 E29.69932
G1 X101.645 Y40.341 E29.73547
G1 X102.626 Y40.608 E29.76928
G1 X114.767 Y44.133 E30.18977
G1 X115.701 Y44.423 E30.2223
G1 X116.653 Y44.747 E30.25575
G1 X128.516 Y49.017 E30.67509
G1 X129.516 Y49.397 E30.71067
G1 X130.486 Y49.798 E30.74558
G1 X142.183 Y54.859 E31.16948
G1 X142.941 Y55.207 E31.19722
G1 X144.07 Y55.759 E31.23902
G1 X155.092 Y61.375 E31.65046
G1 X156.026 Y61.872 E31.68565
G1 X157.077 Y62.47 E31.72587
G1 X167.794 Y68.808 E32.13999
G1 X168.643 Y69.332 E32.17317
G1 X169.643 Y69.988 E32.21295
G1 X179.941 Y76.987 E32.62708
G1 X180.773 Y77.574 E32.66095
G1 X181.72 Y78.284 E32.70031
G1 X191.565 Y85.92 E33.11471
G1 X192.367 Y86.567 E33.14898
G1 X193.28 Y87.347 E33.18892
G1 X202.713 Y95.664 E33.6072
G1 X203.125 Y96.038 E33.6257
G1 X204.079 Y96.953 E33.66967
G1 X213.032 Y105.904 E34.09074
G1 X213.717 Y106.615 E34.12358
G1 X214.545 Y107.523 E34.16445
G1 X222.727 Y116.804 E34.57597
G1 X223.425 Y117.625 E34.61181
G1 X224.19 Y118.578 E34.65246
G1 X231.816 Y128.41 E35.06631
G1 X232.407 Y129.201 E35.09915
G1 X233.005 Y130.049 E35.13366
G1 X240.097 Y140.483 E35.55327
G1 X240.65 Y141.328 E35.58686
G1 X241.2 Y142.223 E35.6218
G1 X247.685 Y153.189 E36.04553
G1 X248.128 Y153.973 E36.07548
G1 X248.672 Y154.999 E36.11411
G1 X254.317 Y166.078 E36.52767
G1 X254.786 Y167.041 E36.5633
G1 X255.201 Y167.958 E36.59678
G1 X260.266 Y179.661 E37.02091
G1 X260.605 Y180.49 E37.0507
G1 X261.016 Y181.576 E37.08932
G1 X265.275 Y193.407 E37.50754
G1 X265.572 Y194.283 E37.53831
G1 X265.876 Y195.268 E37.57259
G1 X269.424 Y207.482 E37.99563
G1 X269.664 Y208.372 E38.02628
G1 X269.939 Y209.517 E38.06545
G1 X272.651 Y221.649 E38.47892
G1 X272.862 Y222.681 E38.51396
G1 X273.062 Y223.821 E38.55245
G1 X275.014 Y236.148 E38.96756
G1 X275.152 Y237.136 E39.00074
G1 X275.268 Y238.175 E39.03551
G1 X276.473 Y250.911 E39.461
G1 X276.532 Y251.724 E39.48811
G1 X276.591 Y252.952 E39.52901
G1 X276.981 Y265.377 E39.94247
G1 X276.997 Y266.198 E39.96978
G1 X276.975 Y267.118 E40.00039
G1 X276.872 Y268.033 E40.03101
G1 X276.691 Y268.936 E40.06164
G1 X276.432 Y269.819 E40.09225
G1 X276.097 Y270.677 E40.12288
G1 X275.689 Y271.502 E40.1535
G1 X275.211 Y272.289 E40.18412
G1 X274.667 Y273.031 E40.21472
G1 X274.06 Y273.724 E40.24536
G1 X273.395 Y274.361 E40.27599
G1 X272.678 Y274.938 E40.3066
G1 X271.913 Y275.451 E40.33724
G1 X271.107 Y275.895 E40.36784
G1 X270.265 Y276.268 E40.39847
G1 X269.394 Y276.566 E40.42909
G1 X268.501 Y276.788 E40.4597
G1 X267.591 Y276.931 E40.49033
G1 X266.614 Y276.996 E40.5229
G1 X265.905 Y277.008 E40.54649
G1 X263.976 Y277.007 E40.61064
G1 X263.289 Y276.998 E40.6335
G1 X262.37 Y276.946 E40.66411
G1 X261.459 Y276.814 E40.69473
G1 X260.562 Y276.604 E40.72537
G1 X259.688 Y276.317 E40.75597
G1 X258.841 Y275.955 E40.7866
G1 X258.029 Y275.521 E40.81722
G1 X257.258 Y275.018 E40.84784
G1 X256.533 Y274.45 E40.87848
G1 X255.861 Y273.822 E40.90907
G1 X255.245 Y273.137 E40.93971
G1 X254.691 Y272.402 E40.97032
G1 X254.204 Y271.621 E41.00093
G1 X253.785 Y270.801 E41.03156
G1 X253.44 Y269.948 E41.06216
G1 X253.169 Y269.067 E41.09282
G1 X252.977 Y268.167 E41.12343
G1 X252.842 Y266.948 E41.16422
G1 X252.781 Y265.728 E41.20485
G1 X252.481 Y256.148 E41.52364
G1 X252.364 Y253.586 E41.60894
G1 X252.116 Y250.362 E41.71649
